X: 148114
Q: "Slow."
M: 6/8
L: 1/8
K: D
vd/e/ |\
f>ed dBA | AFA AFA | f>ed d<af | fee e2 d/e/ |\
f>ed dBA | AFA AFA | d<af e>de | fdd d2 :|
|: A/G/ |\
afd dfd | ecA A2A | FAd ede | fdd d2 |]


